assets/MarketChannelLogos/airpay.svg

<svg xmlns="http://www.w3.org/2000/svg" width="596" height="596" fill="none"><g clip-path="url(#a)"><path fill="#fff" d="M297.6 595.3C133.3 595.3 0 462 0 297.6 0 133.3 133.3 0 297.6 0 462 0 595.3 133.3 595.3 297.6c0 164.4-133.3 297.7-297.7 297.7"/><path fill="#0066A6" fill-rule="evenodd" d="M168.805 236.654v9.653h18.721V227h-18.721zm-72.252 17.017c-5.037 1.207-6.873 1.765-9.946 3.023-11.223 4.595-20.583 14.773-24.615 26.765-2.126 6.322-2.619 16.164-1.146 22.881 3.254 14.837 14.1 27.159 28.262 32.108 13.421 4.689 27.341 2.818 39.683-5.335 1.641-1.084 3.155-1.972 3.364-1.972.207 0 .378 2.106.378 4.681v4.68h18.136v-86.004h-18.136v4.388c0 2.413-.132 4.388-.292 4.388-.16 0-1.542-.891-3.071-1.979-7.373-5.249-14.244-7.444-24.134-7.709-4.022-.108-7.84-.07-8.483.085m195.154.256c-6.313 1.328-12.398 3.953-17.089 7.371-1.491 1.087-2.873 1.976-3.071 1.976-.199 0-.361-1.975-.361-4.388v-4.388H253.05V368h18.136v-18.429c0-19.436.038-19.685 2.596-17.307 2.172 2.021 9.89 5.8 14.37 7.038 23.205 6.408 46.118-6.135 53.92-29.516 1.195-3.58 1.364-5.199 1.346-12.871-.019-7.944-.17-9.22-1.594-13.456-2.251-6.696-5.314-11.58-10.671-17.014-5.342-5.417-10.682-8.801-17.551-11.119-3.894-1.314-5.909-1.61-11.994-1.761-4.022-.1-8.477.063-9.901.362m98.816.051c-5.206.424-9.935 1.718-14.681 4.017-24.689 11.96-32.577 42.898-16.634 65.241 12.205 17.104 36.153 23.072 54.902 13.682 1.996-.999 4.879-2.708 6.407-3.796l2.779-1.979v9.359h18.721v-86.004h-18.721v9.37l-3.364-2.276c-8.985-6.079-18.381-8.511-29.409-7.614m-154.034 1.089c-3.476 1.358-6.303 3.427-9.912 7.254l-2.779 2.948v-10.771h-18.721v86.004h18.721V317.21c0-21.59.088-23.626 1.198-27.864 2.943-11.237 8.051-16.461 16.781-17.162l3.668-.295v-17.976l-3.072.027c-1.689.016-4.337.522-5.884 1.127M168.805 297.5v43.002h18.721v-86.004h-18.721zm280.233-42.425c0 .318 6.828 18.115 15.173 39.549l15.173 38.97-5.812 16.525c-3.197 9.088-5.813 16.836-5.813 17.216 0 .512 2.685.65 10.356.532l10.357-.16 23.244-55.873c12.785-30.73 23.263-56.209 23.284-56.618.03-.582-2.214-.71-10.267-.585l-10.304.159-11.488 29.393c-6.319 16.167-11.625 29.396-11.793 29.4-.168.003-4.093-10.459-8.723-23.25-4.63-12.791-9.459-26.087-10.732-29.546l-2.315-6.289h-10.17c-6.302 0-10.17.219-10.17.577M99.35 273.755c-3.634.926-8.66 3.808-11.374 6.523-9.517 9.518-9.564 24.891-.102 34.359 11.864 11.874 32.311 8.389 39.211-6.683 4.412-9.637 2.55-20.142-4.889-27.591-4.559-4.565-9.598-6.755-15.98-6.942-2.741-.081-5.83.069-6.866.334Zm193.334.063c-3.807.962-8.131 3.51-11.245 6.628-12.853 12.871-7.563 34.609 9.785 40.207 7.894 2.546 17.359.623 23.532-4.784 6.019-5.27 9.298-14.199 8-21.784-1.428-8.341-6.519-15.187-13.841-18.614-3.217-1.505-4.758-1.851-8.96-2.013-2.791-.107-6.063.055-7.271.36m96.38.454c-14.727 5.093-21.273 20.598-14.519 34.39 1.983 4.051 7.354 9.194 11.729 11.231 3.022 1.407 4.07 1.576 9.83 1.585 6.167.009 6.625-.078 10.512-1.991 5.199-2.56 9.211-6.576 11.594-11.607 1.749-3.692 1.868-4.356 1.868-10.38 0-5.73-.167-6.789-1.529-9.654-4.368-9.189-12.85-14.655-22.665-14.607-2.138.011-5.207.475-6.82 1.033" clip-rule="evenodd"/></g><defs><clipPath id="a"><path fill="#fff" d="M0 0h595.3v595.3H0z"/></clipPath></defs></svg>

<svg width="596" height="596" viewBox="0 0 596 596" fill="none" xmlns="http://www.w3.org/2000/svg">
<g clip-path="url(#clip0_98_612)">
<path d="M297.6 595.3C133.3 595.3 0 462 0 297.6C0 133.3 133.3 0 297.6 0C462 0 595.3 133.3 595.3 297.6C595.3 462 462 595.3 297.6 595.3Z" fill="white"/>
<path fill-rule="evenodd" clip-rule="evenodd" d="M168.805 236.654V246.307H178.165H187.526V236.654V227H178.165H168.805V236.654ZM96.5527 253.671C91.5156 254.878 89.6803 255.436 86.6071 256.694C75.3843 261.289 66.0237 271.467 61.9922 283.459C59.8662 289.781 59.373 299.623 60.8461 306.34C64.0995 321.177 74.9456 333.499 89.1081 338.448C102.529 343.137 116.449 341.266 128.791 333.113C130.432 332.029 131.946 331.141 132.155 331.141C132.362 331.141 132.533 333.247 132.533 335.822V340.502H141.601H150.669V297.5V254.498H141.601H132.533V258.886C132.533 261.299 132.401 263.274 132.241 263.274C132.081 263.274 130.699 262.383 129.17 261.295C121.797 256.046 114.926 253.851 105.036 253.586C101.014 253.478 97.1963 253.516 96.5527 253.671ZM291.707 253.927C285.394 255.255 279.309 257.88 274.618 261.298C273.127 262.385 271.745 263.274 271.547 263.274C271.348 263.274 271.186 261.299 271.186 258.886V254.498H262.118H253.05V311.249V368H262.118H271.186V349.571C271.186 330.135 271.224 329.886 273.782 332.264C275.954 334.285 283.672 338.064 288.152 339.302C311.357 345.71 334.27 333.167 342.072 309.786C343.267 306.206 343.436 304.587 343.418 296.915C343.399 288.971 343.248 287.695 341.824 283.459C339.573 276.763 336.51 271.879 331.153 266.445C325.811 261.028 320.471 257.644 313.602 255.326C309.708 254.012 307.693 253.716 301.608 253.565C297.586 253.465 293.131 253.628 291.707 253.927ZM390.523 253.978C385.317 254.402 380.588 255.696 375.842 257.995C351.153 269.955 343.265 300.893 359.208 323.236C371.413 340.34 395.361 346.308 414.11 336.918C416.106 335.919 418.989 334.21 420.517 333.122L423.296 331.143V335.823V340.502H432.657H442.017V297.5V254.498H432.657H423.296V259.183V263.868L419.932 261.592C410.947 255.513 401.551 253.081 390.523 253.978ZM236.489 255.067C233.013 256.425 230.186 258.494 226.577 262.321L223.798 265.269V259.883V254.498H214.438H205.077V297.5V340.502H214.438H223.798V317.21C223.798 295.62 223.886 293.584 224.996 289.346C227.939 278.109 233.047 272.885 241.777 272.184L245.445 271.889V262.901V253.913L242.373 253.94C240.684 253.956 238.036 254.462 236.489 255.067ZM168.805 297.5V340.502H178.165H187.526V297.5V254.498H178.165H168.805V297.5ZM449.038 255.075C449.038 255.393 455.866 273.19 464.211 294.624L479.384 333.594L473.572 350.119C470.375 359.207 467.759 366.955 467.759 367.335C467.759 367.847 470.444 367.985 478.115 367.867L488.472 367.707L511.716 311.834C524.501 281.104 534.979 255.625 535 255.216C535.03 254.634 532.786 254.506 524.733 254.631L514.429 254.79L502.941 284.183C496.622 300.35 491.316 313.579 491.148 313.583C490.98 313.586 487.055 303.124 482.425 290.333C477.795 277.542 472.966 264.246 471.693 260.787L469.378 254.498H459.208C452.906 254.498 449.038 254.717 449.038 255.075ZM99.3498 273.755C95.7155 274.681 90.6907 277.563 87.9761 280.278C78.4587 289.796 78.4125 305.169 87.8737 314.637C99.7383 326.511 120.185 323.026 127.085 307.954C131.497 298.317 129.635 287.812 122.196 280.363C117.637 275.798 112.598 273.608 106.216 273.421C103.475 273.34 100.386 273.49 99.3498 273.755ZM292.684 273.818C288.877 274.78 284.553 277.328 281.439 280.446C268.586 293.317 273.876 315.055 291.224 320.653C299.118 323.199 308.583 321.276 314.756 315.869C320.775 310.599 324.054 301.67 322.756 294.085C321.328 285.744 316.237 278.898 308.915 275.471C305.698 273.966 304.157 273.62 299.955 273.458C297.164 273.351 293.892 273.513 292.684 273.818ZM389.064 274.272C374.337 279.365 367.791 294.87 374.545 308.662C376.528 312.713 381.899 317.856 386.274 319.893C389.296 321.3 390.344 321.469 396.104 321.478C402.271 321.487 402.729 321.4 406.616 319.487C411.815 316.927 415.827 312.911 418.21 307.88C419.959 304.188 420.078 303.524 420.078 297.5C420.078 291.77 419.911 290.711 418.549 287.846C414.181 278.657 405.699 273.191 395.884 273.239C393.746 273.25 390.677 273.714 389.064 274.272Z" fill="#0066A6"/>
</g>
<defs>
<clipPath id="clip0_98_612">
<rect width="595.3" height="595.3" fill="white"/>
</clipPath>
</defs>
</svg>
